Origami/32x32/apps/torchlight-2.svg

<svg width="32" height="32" version="1" xmlns="http://www.w3.org/2000/svg">
 <rect transform="matrix(0,-1,-1,0,0,0)" x="-31" y="-30" width="28" height="28" rx="1.4" ry="1.4" style="opacity:.2"/>
 <rect transform="matrix(0,-1,-1,0,0,0)" x="-30" y="-30" width="28" height="28" rx="1.4" ry="1.4" style="fill:#4f4f4f"/>
 <path d="m9 6.5v5.599609c0-0.7 1.725975-2.099609 2.800781-2.099609h3.199219v13l-2 2h7l-2-2v-9.25c0.579164-4.0920962 2.030707-5.0224151 4.964844-5.75h-12.777344l-1.1875-1.5zm-2.5 7.5 1.5 2v8.900391l-1.5 2.099609h7l-1.5-2.099609v-8.900391l1.5-2h-7zm13 0 1.5 2v8.900391l-1.5 2.099609h7l-1.5-2.099609v-8.900391l1.5-2h-7z" style="opacity:.2"/>
 <path d="m9 5.5v5.6c0-0.7 1.725194-2.1 2.8-2.1h3.2v13l-2 2h7l-2-2v-9.249312c0.579164-4.0920962 2.030278-5.0231031 4.964415-5.750688h-12.776961z" style="fill:#ff8e19"/>
 <path d="m6.5 13h7l-1.5 2v8.9l1.5 2.1h-7l1.5-2.1v-8.9z" style="fill:#1289db"/>
 <path d="m19.5 13h7l-1.5 2v8.9l1.5 2.1h-7l1.5-2.1v-8.9z" style="fill:#1289db"/>
 <path d="m9 5.5v1l1.1875 1.5h10.179688c0.697731-0.4468587 1.549077-0.7399814 2.597656-1h-12.777344l-1.1875-1.5zm-2.5 7.5l0.75 1h5.5l0.75-1h-7zm13 0l0.75 1h5.5l0.75-1h-7zm-4.5 9l-2 2h1l1-1v-1zm3 0v1l1 1h1l-2-2zm-10 1.900391l-1.5 2.099609h0.7148438l0.7851562-1.099609v-1zm4 0v1l0.785156 1.099609h0.714844l-1.5-2.099609zm9 0l-1.5 2.099609h0.714844l0.785156-1.099609v-1zm4 0v1l0.785156 1.099609h0.714844l-1.5-2.099609z" style="fill:#ffffff;opacity:.1"/>
 <path d="M 3.4003906 2 C 2.6247906 2 2 2.6247906 2 3.4003906 L 2 4.4003906 C 2 3.6247906 2.6247906 3 3.4003906 3 L 28.599609 3 C 29.375209 3 30 3.6247906 30 4.4003906 L 30 3.4003906 C 30 2.6247906 29.375209 2 28.599609 2 L 3.4003906 2 z" style="fill:#ffffff;opacity:.1"/>
</svg>

<svg xmlns="http://www.w3.org/2000/svg" width="32" height="32" version="1">
 <rect style="opacity:0.2" width="28" height="28" x="-31" y="-30" rx="1.4" ry="1.4" transform="matrix(0,-1,-1,0,0,0)"/>
 <rect style="fill:#4f4f4f" width="28" height="28" x="-30" y="-30" rx="1.4" ry="1.4" transform="matrix(0,-1,-1,0,0,0)"/>
 <path style="opacity:0.2" d="m 9,6.5 0,5.599609 C 9,11.399609 10.725975,10 11.800781,10 L 15,10 l 0,13 -2,2 7,0 -2,-2 0,-9.25 C 18.579164,9.6579038 20.030707,8.7275849 22.964844,8 L 10.1875,8 9,6.5 Z M 6.5,14 8,16 8,24.900391 6.5,27 13.5,27 12,24.900391 12,16 l 1.5,-2 -7,0 z m 13,0 1.5,2 0,8.900391 L 19.5,27 26.5,27 25,24.900391 25,16 l 1.5,-2 -7,0 z"/>
 <path style="fill:#ff8e19" d="m 9,5.5 0,5.6 C 9,10.4 10.725194,9 11.8,9 l 3.2,0 0,13 -2,2 7,0 -2,-2 0,-9.249312 C 18.579164,8.6585918 20.030278,7.7275849 22.964415,7 L 10.187454,7 Z"/>
 <path style="fill:#1289db" d="m 6.5,13 7,0 -1.5,2 0,8.9 1.5,2.1 -7,0 L 8,23.9 8,15 Z"/>
 <path style="fill:#1289db" d="m 19.5,13 7,0 -1.5,2 0,8.9 1.5,2.1 -7,0 1.5,-2.1 0,-8.9 z"/>
 <path style="opacity:0.1;fill:#ffffff" d="M 9 5.5 L 9 6.5 L 10.1875 8 L 20.367188 8 C 21.064919 7.5531413 21.916265 7.2600186 22.964844 7 L 10.1875 7 L 9 5.5 z M 6.5 13 L 7.25 14 L 12.75 14 L 13.5 13 L 6.5 13 z M 19.5 13 L 20.25 14 L 25.75 14 L 26.5 13 L 19.5 13 z M 15 22 L 13 24 L 14 24 L 15 23 L 15 22 z M 18 22 L 18 23 L 19 24 L 20 24 L 18 22 z M 8 23.900391 L 6.5 26 L 7.2148438 26 L 8 24.900391 L 8 23.900391 z M 12 23.900391 L 12 24.900391 L 12.785156 26 L 13.5 26 L 12 23.900391 z M 21 23.900391 L 19.5 26 L 20.214844 26 L 21 24.900391 L 21 23.900391 z M 25 23.900391 L 25 24.900391 L 25.785156 26 L 26.5 26 L 25 23.900391 z"/>
 <path style="fill:#ffffff;opacity:0.1" d="M 3.4003906 2 C 2.6247906 2 2 2.6247906 2 3.4003906 L 2 4.4003906 C 2 3.6247906 2.6247906 3 3.4003906 3 L 28.599609 3 C 29.375209 3 30 3.6247906 30 4.4003906 L 30 3.4003906 C 30 2.6247906 29.375209 2 28.599609 2 L 3.4003906 2 z"/>
</svg>
